icons/svg/wallet.svg

﻿<?xml version="1.0" encoding="utf-8"?>
<!DOCTYPE svg PUBLIC "-//W3C//DTD SVG 1.1//EN" "http://www.w3.org/Graphics/SVG/1.1/DTD/svg11.dtd">
<svg xmlns="http://www.w3.org/2000/svg" xmlns:xlink="http://www.w3.org/1999/xlink" version="1.1" baseProfile="full" width="24" height="24" viewBox="0 0 24.00 24.00" enable-background="new 0 0 24.00 24.00" xml:space="preserve">
	<path fill="#000000" fill-opacity="1" stroke-width="0.2" stroke-linejoin="round" d="M 21.0013,17.9975L 21.0013,18.9988C 21.0013,20.0975 20.0975,21.0012 18.9988,21.0012L 5,21.0012C 3.89125,21.0012 2.9975,20.0975 2.9975,18.9988L 2.9975,5C 2.9975,3.90125 3.89125,2.9978 5,2.9978L 18.9988,2.9978C 20.0975,2.9978 21.0013,3.90125 21.0013,5L 21.0013,6.00125L 12.0025,6.00125C 10.8888,6.00125 10,6.9 10,7.9975L 10,16.0012C 10,17.1 10.8888,17.9975 12.0025,17.9975M 12.0025,16.0012L 22.0025,16.0012L 22.0025,7.9975L 12.0025,7.9975M 16.0012,13.5012C 15.1713,13.5012 14.5025,12.8325 14.5025,12.0025C 14.5025,11.1713 15.1713,10.4975 16.0012,10.4975C 16.8313,10.4975 17.5,11.1713 17.5,12.0025C 17.5,12.8325 16.8313,13.5012 16.0012,13.5012 Z "/>
</svg>

<svg xmlns="http://www.w3.org/2000/svg" version="1.1" baseProfile="full" width="24" height="24" viewBox="0 0 24.00 24.00" xml:space="preserve"><path fill="#000" fill-opacity="1" stroke-width=".2" stroke-linejoin="round" d="M21 17.997V19c0 1.098-.902 2-2 2H5c-1.11 0-2.002-.902-2.002-2V5c0-1.1.893-2.002 2.002-2.002h14c1.098 0 2 .903 2 2.002v1h-8.998C10.89 6 10 6.9 10 7.998v8.004c0 1.1.89 1.997 2.002 1.997m0-1.996h10V7.998h-10m4 5.504c-.83 0-1.5-.668-1.5-1.498s.67-1.505 1.5-1.505 1.498.674 1.498 1.505c0 .83-.67 1.5-1.5 1.5z"/></svg>
